X: 8963
T: Cuttie's Wedding
R: strathspey
M: 4/4
K: Bminor
|:B2 d>e f<B d2|B2 d>e f>e f<a|B2 d>e f<B d2|e>f e>d c>A c<e:|
d>e f>g a<d f2|d>e f>e f>e f<a|d>e f>g a<d f2|e>f e>d c>A c<e|
d>e f>g a<d f2|d>e f>e f>e f<a|d>a f<a d>a f<a|e>f e>d c>A c<e||

